annanekrasova/img/icons/logo.svg

<svg width="195" height="71" viewBox="0 0 195 71" fill="none" xmlns="http://www.w3.org/2000/svg">
<path d="M193.771 35.962C193.771 40.5924 191.172 45.0695 186.324 49.2052C181.478 53.3394 174.436 57.085 165.691 60.2405C148.204 66.5499 124.015 70.462 97.271 70.462C70.5275 70.462 46.3375 66.5499 28.8513 60.2405C20.1061 57.085 13.0643 53.3394 8.21824 49.2052C3.37024 45.0695 0.770996 40.5924 0.770996 35.962C0.770996 31.3317 3.37024 26.8546 8.21824 22.7188C13.0643 18.5847 20.1061 14.8391 28.8513 11.6836C46.3375 5.37418 70.5275 1.46204 97.271 1.46204C124.015 1.46204 148.204 5.37418 165.691 11.6836C174.436 14.8391 181.478 18.5847 186.324 22.7188C191.172 26.8546 193.771 31.3317 193.771 35.962Z" stroke="#3E3E3E"/>
<path d="M39.731 41.462H41.371V29.002L41.111 27.822H41.571L48.591 41.462H51.891V27.362H50.271V39.822L50.531 41.002H50.071L43.031 27.362H39.731V41.462ZM54.5943 41.462H63.3343V40.062H56.2343V35.102H62.3343V33.702H56.2343V28.762H63.3343V27.362H54.5943V41.462ZM76.9485 27.362H74.5885L67.3085 33.362V27.362H65.6685V41.462H67.3085V35.462L74.5885 41.462H76.9485L68.3485 34.402L76.9485 27.362ZM78.8521 41.462H80.4921V35.802H87.5721V41.462H89.2121V36.162C89.2121 35.422 88.8921 35.102 88.0921 35.102H86.4121V34.622C87.9321 34.362 89.0321 33.422 89.0321 31.302C89.0321 28.142 86.8921 27.362 83.5321 27.362H78.8521V41.462ZM80.4921 34.402V28.762H83.5321C85.9321 28.762 87.3921 28.982 87.3921 31.582C87.3921 34.162 85.9321 34.402 83.5321 34.402H80.4921ZM102.134 41.462H103.754L99.2143 27.362H95.8543L91.2943 41.462H92.9343L94.6943 35.942H100.354L102.134 41.462ZM95.1543 34.542L97.2943 27.822H97.7543L99.9143 34.542H95.1543ZM116.302 37.902C116.302 34.962 113.102 34.202 110.342 33.342C108.022 32.622 106.782 32.082 106.782 30.602C106.782 29.042 108.202 28.562 110.142 28.562C112.302 28.562 114.082 29.602 114.082 32.002H115.722C115.722 29.702 114.302 27.162 110.142 27.162C106.662 27.162 105.142 28.482 105.142 30.642C105.142 33.142 107.162 33.902 109.942 34.742C112.182 35.402 114.662 35.842 114.662 37.982C114.662 39.682 113.282 40.262 110.882 40.262C107.922 40.262 106.142 39.522 106.142 36.182H104.502C104.502 39.482 105.962 41.662 110.882 41.662C115.042 41.662 116.302 40.002 116.302 37.902ZM117.812 34.402C117.812 38.522 120.252 41.662 124.412 41.662C128.532 41.662 130.972 38.522 130.972 34.402C130.972 30.302 128.532 27.162 124.412 27.162C120.252 27.162 117.812 30.302 117.812 34.402ZM119.452 34.402C119.452 31.042 121.072 28.562 124.412 28.562C127.732 28.562 129.332 31.042 129.332 34.402C129.332 37.782 127.732 40.262 124.412 40.262C121.072 40.262 119.452 37.782 119.452 34.402ZM131.9 27.362L136.46 41.462H139.82L144.36 27.362H142.74L138.36 41.002H137.9L133.54 27.362H131.9ZM153.951 41.462H155.571L151.031 27.362H147.671L143.111 41.462H144.751L146.511 35.942H152.171L153.951 41.462ZM146.971 34.542L149.111 27.822H149.571L151.731 34.542H146.971Z" fill="#3E3E3E"/>
</svg>

<svg width="195" height="71" fill="none" xmlns="http://www.w3.org/2000/svg"><path d="M193.771 35.962c0 4.63-2.599 9.107-7.447 13.243-4.846 4.134-11.888 7.88-20.633 11.035-17.487 6.31-41.676 10.222-68.42 10.222-26.743 0-50.934-3.912-68.42-10.222-8.745-3.155-15.787-6.9-20.633-11.035C3.37 45.07.771 40.592.771 35.962c0-4.63 2.6-9.107 7.447-13.243 4.846-4.134 11.888-7.88 20.633-11.035 17.486-6.31 41.677-10.222 68.42-10.222 26.744 0 50.933 3.912 68.42 10.222 8.745 3.155 15.787 6.9 20.633 11.035 4.848 4.136 7.447 8.613 7.447 13.243z" stroke="#3E3E3E"/><path d="M39.731 41.462h1.64v-12.46l-.26-1.18h.46l7.02 13.64h3.3v-14.1h-1.62v12.46l.26 1.18h-.46l-7.04-13.64h-3.3v14.1zm14.863 0h8.74v-1.4h-7.1v-4.96h6.1v-1.4h-6.1v-4.94h7.1v-1.4h-8.74v14.1zm22.354-14.1h-2.36l-7.28 6v-6h-1.64v14.1h1.64v-6l7.28 6h2.36l-8.6-7.06 8.6-7.04zm1.904 14.1h1.64v-5.66h7.08v5.66h1.64v-5.3c0-.74-.32-1.06-1.12-1.06h-1.68v-.48c1.52-.26 2.62-1.2 2.62-3.32 0-3.16-2.14-3.94-5.5-3.94h-4.68v14.1zm1.64-7.06v-5.64h3.04c2.4 0 3.86.22 3.86 2.82 0 2.58-1.46 2.82-3.86 2.82h-3.04zm21.642 7.06h1.62l-4.54-14.1h-3.36l-4.56 14.1h1.64l1.76-5.52h5.66l1.78 5.52zm-6.98-6.92l2.14-6.72h.46l2.16 6.72h-4.76zm21.148 3.36c0-2.94-3.2-3.7-5.96-4.56-2.32-.72-3.56-1.26-3.56-2.74 0-1.56 1.42-2.04 3.36-2.04 2.16 0 3.94 1.04 3.94 3.44h1.64c0-2.3-1.42-4.84-5.58-4.84-3.48 0-5 1.32-5 3.48 0 2.5 2.02 3.26 4.8 4.1 2.24.66 4.72 1.1 4.72 3.24 0 1.7-1.38 2.28-3.78 2.28-2.96 0-4.74-.74-4.74-4.08h-1.64c0 3.3 1.46 5.48 6.38 5.48 4.16 0 5.42-1.66 5.42-3.76zm1.51-3.5c0 4.12 2.44 7.26 6.6 7.26 4.12 0 6.56-3.14 6.56-7.26 0-4.1-2.44-7.24-6.56-7.24-4.16 0-6.6 3.14-6.6 7.24zm1.64 0c0-3.36 1.62-5.84 4.96-5.84 3.32 0 4.92 2.48 4.92 5.84 0 3.38-1.6 5.86-4.92 5.86-3.34 0-4.96-2.48-4.96-5.86zm12.448-7.04l4.56 14.1h3.36l4.54-14.1h-1.62l-4.38 13.64h-.46l-4.36-13.64h-1.64zm22.051 14.1h1.62l-4.54-14.1h-3.36l-4.56 14.1h1.64l1.76-5.52h5.66l1.78 5.52zm-6.98-6.92l2.14-6.72h.46l2.16 6.72h-4.76z" fill="#3E3E3E"/></svg>
